remix/Weather/flashlight-line.svg

<svg viewBox="0 0 24 24" fill="currentColor" xmlns="http://www.w3.org/2000/svg"><path d="M13 9H21L11 24V15H4L13 0V9ZM11 11V7.22063L7.53238 13H13V17.3944L17.263 11H11Z"/></svg>

<svg viewBox="0 0 24 24" xmlns="http://www.w3.org/2000/svg"><path fill="none" d="M0 0h24v24H0Z"/><path d="M13 9h8L11 24v-9H4l9-15v9Zm-2 2V7.22L7.532 13H13v4.39l4.26-6.4h-6.27Z"/></svg>
